X: 042
T: Prince W.m of Gloucester
%R: reel
Z: 2018 John Chambers <jc:trillian.mit.edu>
B: Bland and Weller "Country Dances for the Year 1798" p.4 #2
S: Private email from ECD list
M: C|
L: 1/8
K: Eb
B |\
B2GE DFB,A | GBeG AFcA |\
GEDE CA,AF | GEFD E2-E :|
|: B/c//d// |\
eBgB fBaB | gBbg fdTcB |\
[1 eBgB fBaf | gefd e2-e :|\
[2 egce dfBd |
cBcd B3 \
|: A |\
GEEG FDDF | GEEG Bcde |\
GEEG FDDA | GEFD E2E :|
% - - - - - - - - - - - - - - - - - - - - - - - - -
%%begintext align
%% Set and half right & left .| back again .|.
%% lead down the middle up again :|. Allmand :|:
%% swing Corners .:|:.
%%endtext
% - - - - - - - - - - - - - - - - - - - - - - - - -
